Numix-GalliumOS/64/mimetypes/wps-office-wpt.svg

<svg xmlns="http://www.w3.org/2000/svg" xmlns:xlink="http://www.w3.org/1999/xlink" width="64px" height="64px" viewBox="0 0 64 64" version="1.1">
<g id="surface1">
<path style=" stroke:none;fill-rule:nonzero;fill:rgb(20.392157%,40.784314%,80.784314%);fill-opacity:1;" d="M 10.6875 0 C 9.3125 0 8 1.378906 8 2.8125 L 8 61.1875 C 8 62.539062 9.390625 64 10.6875 64 L 53.3125 64 C 54.609375 64 56 62.539062 56 61.1875 L 56 2.75 C 56 1.402344 54.597656 0 53.25 0 Z M 10.6875 0 "/>
<path style=" stroke:none;fill-rule:evenodd;fill:rgb(97.647059%,97.647059%,97.647059%);fill-opacity:1;" d="M 20 20 L 32 20 L 32 30 L 20 30 Z M 20 20 "/>
<path style=" stroke:none;fill-rule:evenodd;fill:rgb(97.647059%,97.647059%,97.647059%);fill-opacity:1;" d="M 34 20 L 44 20 L 44 22 L 34 22 Z M 34 20 "/>
<path style=" stroke:none;fill-rule:evenodd;fill:rgb(97.647059%,97.647059%,97.647059%);fill-opacity:1;" d="M 34 24 L 44 24 L 44 26 L 34 26 Z M 34 24 "/>
<path style=" stroke:none;fill-rule:evenodd;fill:rgb(97.647059%,97.647059%,97.647059%);fill-opacity:1;" d="M 34 28 L 44 28 L 44 30 L 34 30 Z M 34 28 "/>
<path style=" stroke:none;fill-rule:evenodd;fill:rgb(97.647059%,97.647059%,97.647059%);fill-opacity:1;" d="M 20 32 L 44 32 L 44 34 L 20 34 Z M 20 32 "/>
<path style=" stroke:none;fill-rule:evenodd;fill:rgb(97.647059%,97.647059%,97.647059%);fill-opacity:1;" d="M 20 36 L 44 36 L 44 38 L 20 38 Z M 20 36 "/>
<path style=" stroke:none;fill-rule:evenodd;fill:rgb(97.647059%,97.647059%,97.647059%);fill-opacity:1;" d="M 20 40 L 44 40 L 44 42 L 20 42 Z M 20 40 "/>
<path style=" stroke:none;fill-rule:nonzero;fill:rgb(0%,0%,0%);fill-opacity:0.196078;" d="M 8 48 L 8 61.335938 C 8 62.632812 9.375 64 10.664062 64 L 53.335938 64 C 54.625 64 56 62.632812 56 61.335938 L 56 48 Z M 8 48 "/>
<path style=" stroke:none;fill-rule:nonzero;fill:rgb(100%,100%,100%);fill-opacity:1;" d="M 23.21875 54.832031 C 23.269531 55.054688 23.351562 55.335938 23.449219 55.671875 C 23.554688 56.007812 23.664062 56.378906 23.777344 56.78125 C 23.910156 57.191406 24.039062 57.628906 24.1875 58.097656 C 24.335938 58.554688 24.484375 59.035156 24.632812 59.527344 C 24.632812 58.902344 24.625 58.246094 24.609375 57.539062 C 24.601562 56.824219 24.582031 56.089844 24.574219 55.351562 C 24.558594 54.613281 24.550781 53.863281 24.535156 53.109375 C 24.519531 52.34375 24.519531 51.613281 24.519531 50.90625 L 26.71875 50.90625 C 26.679688 51.808594 26.636719 52.753906 26.597656 53.714844 C 26.5625 54.675781 26.515625 55.632812 26.464844 56.585938 C 26.417969 57.527344 26.351562 58.464844 26.277344 59.386719 C 26.210938 60.308594 26.128906 61.179688 26.039062 62 L 24.074219 62 C 23.785156 61.242188 23.507812 60.4375 23.21875 59.582031 C 22.941406 58.703125 22.652344 57.875 22.371094 57.085938 C 22.085938 57.839844 21.789062 58.664062 21.484375 59.542969 C 21.171875 60.429688 20.886719 61.242188 20.628906 62 L 18.65625 62 C 18.558594 61.179688 18.46875 60.308594 18.386719 59.386719 C 18.3125 58.449219 18.238281 57.511719 18.179688 56.566406 C 18.125 55.613281 18.082031 54.652344 18.042969 53.699219 C 18 52.730469 17.96875 51.800781 17.941406 50.90625 L 20.144531 50.90625 C 20.136719 51.613281 20.121094 52.335938 20.113281 53.089844 C 20.097656 53.847656 20.078125 54.59375 20.070312 55.351562 C 20.054688 56.089844 20.046875 56.824219 20.03125 57.539062 C 20.023438 58.246094 20.015625 58.902344 20.015625 59.527344 C 20.128906 59.140625 20.261719 58.730469 20.398438 58.269531 C 20.554688 57.816406 20.695312 57.375 20.828125 56.929688 C 20.96875 56.484375 21.097656 56.082031 21.214844 55.703125 C 21.328125 55.335938 21.417969 55.046875 21.484375 54.832031 L 23.21875 54.832031 "/>
<path style=" stroke:none;fill-rule:nonzero;fill:rgb(100%,100%,100%);fill-opacity:1;" d="M 31.488281 50.78125 C 33.007812 50.78125 34.191406 51.070312 35.019531 51.660156 C 35.859375 52.230469 36.277344 53.171875 36.277344 54.488281 C 36.277344 55.820312 35.851562 56.78125 35.003906 57.375 C 34.164062 57.964844 32.972656 58.253906 31.429688 58.253906 L 30.582031 58.253906 L 30.582031 62 L 28.207031 62 L 28.207031 51.046875 C 28.4375 51.003906 28.691406 50.953125 28.980469 50.921875 C 29.277344 50.890625 29.570312 50.863281 29.867188 50.847656 C 30.164062 50.824219 30.449219 50.808594 30.738281 50.796875 C 31.019531 50.78125 31.273438 50.78125 31.488281 50.78125 M 31.757812 52.695312 C 31.617188 52.695312 31.421875 52.707031 31.15625 52.714844 C 30.910156 52.714844 30.722656 52.730469 30.582031 52.753906 L 30.582031 56.335938 L 31.542969 56.335938 C 32.308594 56.335938 32.875 56.199219 33.261719 55.925781 C 33.65625 55.640625 33.84375 55.152344 33.84375 54.472656 C 33.84375 53.824219 33.65625 53.371094 33.261719 53.109375 C 32.890625 52.835938 32.390625 52.695312 31.757812 52.695312 "/>
<path style=" stroke:none;fill-rule:nonzero;fill:rgb(100%,100%,100%);fill-opacity:1;" d="M 46 50.90625 L 46 52.730469 L 42.84375 52.730469 L 42.84375 62 L 40.453125 62 L 40.453125 52.730469 L 37.304688 52.730469 L 37.304688 50.90625 L 46 50.90625 "/>
</g>
</svg>

<svg xmlns="http://www.w3.org/2000/svg" viewBox="0 0 64 64">
 <g>
  <path d="m 10.688 0 c -1.375 0 -2.688 1.379 -2.688 2.813 l 0 58.38 c 0 1.352 1.391 2.813 2.688 2.813 l 42.625 0 c 1.297 0 2.688 -1.461 2.688 -2.813 l 0 -58.44 c 0 -1.348 -1.402 -2.75 -2.75 -2.75 m -42.563 0" style="fill:#3468ce;fill-opacity:1;stroke:none;fill-rule:nonzero"/>
  <path d="m 20 20 l 12 0 l 0 10 l -12 0 m 0 -10" style="fill:#f9f9f9;fill-opacity:1;stroke:none;fill-rule:evenodd"/>
  <path d="m 34 20 l 10 0 l 0 2 l -10 0 m 0 -2" style="fill:#f9f9f9;fill-opacity:1;stroke:none;fill-rule:evenodd"/>
  <path d="m 34 24 l 10 0 l 0 2 l -10 0 m 0 -2" style="fill:#f9f9f9;fill-opacity:1;stroke:none;fill-rule:evenodd"/>
  <path d="m 34 28 l 10 0 l 0 2 l -10 0 m 0 -2" style="fill:#f9f9f9;fill-opacity:1;stroke:none;fill-rule:evenodd"/>
  <path d="m 20 32 l 24 0 l 0 2 l -24 0 m 0 -2" style="fill:#f9f9f9;fill-opacity:1;stroke:none;fill-rule:evenodd"/>
  <path d="m 20 36 l 24 0 l 0 2 l -24 0 m 0 -2" style="fill:#f9f9f9;fill-opacity:1;stroke:none;fill-rule:evenodd"/>
  <path d="m 20 40 l 24 0 l 0 2 l -24 0 m 0 -2" style="fill:#f9f9f9;fill-opacity:1;stroke:none;fill-rule:evenodd"/>
  <path d="m 8 48 l 0 13.336 c 0 1.297 1.375 2.664 2.664 2.664 l 42.672 0 c 1.289 0 2.664 -1.367 2.664 -2.664 l 0 -13.336 m -48 0" style="fill:#000;fill-opacity:0.196;stroke:none;fill-rule:nonzero"/>
  <path d="m 23.22 54.832 c 0.051 0.223 0.133 0.504 0.23 0.84 c 0.105 0.336 0.215 0.707 0.328 1.109 c 0.133 0.41 0.262 0.848 0.41 1.316 c 0.148 0.457 0.297 0.938 0.445 1.43 c 0 -0.625 -0.008 -1.281 -0.023 -1.988 c -0.008 -0.715 -0.027 -1.449 -0.035 -2.188 c -0.016 -0.738 -0.023 -1.488 -0.039 -2.242 c -0.016 -0.766 -0.016 -1.496 -0.016 -2.203 l 2.199 0 c -0.039 0.902 -0.082 1.848 -0.121 2.809 c -0.035 0.961 -0.082 1.918 -0.133 2.871 c -0.047 0.941 -0.113 1.879 -0.188 2.801 c -0.066 0.922 -0.148 1.793 -0.238 2.613 l -1.965 0 c -0.289 -0.758 -0.566 -1.563 -0.855 -2.418 c -0.277 -0.879 -0.566 -1.707 -0.848 -2.496 c -0.285 0.754 -0.582 1.578 -0.887 2.457 c -0.313 0.887 -0.598 1.699 -0.855 2.457 l -1.973 0 c -0.098 -0.82 -0.188 -1.691 -0.27 -2.613 c -0.074 -0.938 -0.148 -1.875 -0.207 -2.82 c -0.055 -0.953 -0.098 -1.914 -0.137 -2.867 c -0.043 -0.969 -0.074 -1.898 -0.102 -2.793 l 2.203 0 c -0.008 0.707 -0.023 1.43 -0.031 2.184 c -0.016 0.758 -0.035 1.504 -0.043 2.262 c -0.016 0.738 -0.023 1.473 -0.039 2.188 c -0.008 0.707 -0.016 1.363 -0.016 1.988 c 0.113 -0.387 0.246 -0.797 0.383 -1.258 c 0.156 -0.453 0.297 -0.895 0.43 -1.34 c 0.141 -0.445 0.27 -0.848 0.387 -1.227 c 0.113 -0.367 0.203 -0.656 0.27 -0.871 l 1.734 0" style="fill:#fff;fill-opacity:1;stroke:none;fill-rule:nonzero"/>
  <path d="m 31.488 50.781 c 1.52 0 2.703 0.289 3.531 0.879 c 0.84 0.57 1.258 1.512 1.258 2.828 c 0 1.332 -0.426 2.293 -1.273 2.887 c -0.84 0.59 -2.031 0.879 -3.574 0.879 l -0.848 0 l 0 3.746 l -2.375 0 l 0 -10.953 c 0.23 -0.043 0.484 -0.094 0.773 -0.125 c 0.297 -0.031 0.59 -0.059 0.887 -0.074 c 0.297 -0.023 0.582 -0.039 0.871 -0.051 c 0.281 -0.016 0.535 -0.016 0.75 -0.016 m 0.27 1.914 c -0.141 0 -0.336 0.012 -0.602 0.02 c -0.246 0 -0.434 0.016 -0.574 0.039 l 0 3.582 l 0.961 0 c 0.766 0 1.332 -0.137 1.719 -0.41 c 0.395 -0.285 0.582 -0.773 0.582 -1.453 c 0 -0.648 -0.188 -1.102 -0.582 -1.363 c -0.371 -0.273 -0.871 -0.414 -1.504 -0.414" style="fill:#fff;fill-opacity:1;stroke:none;fill-rule:nonzero"/>
  <path d="m 46 50.906 l 0 1.824 l -3.156 0 l 0 9.27 l -2.391 0 l 0 -9.27 l -3.148 0 l 0 -1.824 l 8.695 0" style="fill:#fff;fill-opacity:1;stroke:none;fill-rule:nonzero"/>
 </g>
</svg>
